X:1
T:Requiem in F
T:Robert Führer (1807-1861)
T:Requiem i F
T:Opus 280
T:Manfred Hößl - mhoessl.de
T:Manfred Hößl - mhoessl.de
T:Manfred Hößl - mhoessl.de
T:Manfred Hößl - mhoessl.de
T:Manfred Hößl - mhoessl.de
T:Manfred Hößl - mhoessl.de
T:Manfred Hößl - mhoessl.de
C:Robert Führer op. 280
Z:Manfred Hößl - mhoessl.de
%%score 1 { ( 2 4 ) | ( 3 5 ) }
L:1/8
Q:1/4=60
M:3/4
K:F
V:1 treble nm="Stimme"
V:2 treble nm="MusicXML Part"
V:4 treble 
V:3 bass 
V:5 bass 
V:1
"^poco Adagio" A3/2 G/ G2 A2"^Requiem" | B2 A2 A2- | A3/2 G/ G2 G2 | G3/2 ^F/ G2 ^G2 | A4 G2 | %5
w: Re- qui- em ae-|ter- nam do-|* na e- is|Do- mi- ne et|lux pet-|
 F3 G A2 | B A/ G/ (F2 E2) | F2 z2 z2 | G2 G2 c2 | (c=B) B2 z2 | G2 (GA) (GF) | (E>F) G2 G2 | %12
w: pe- tu- a|lu- ce- at e- *|is.|Te de- cet|hym- * nus|De- us _ in _|Si- * on et|
 A2 A =B c G | (G2 F2) E2 | A F E2 D2 | C2 z4 | F3/2 F/ F2 G2 | (A>^G) A2 z2 | F2 F2 G2 | %19
w: Ti- bi- red- de- tur|vo- * tum|in Je- ru- sa-|lem.|Ky- ri- e e-|lei- * son,|Chri- ste e-|
 (A>^G) A2 z2 | ^F3/2 F/ G2 A2 | B2 B2 A2 | (G2 F2 E2) | F4 A2 | B6 | A6 |] %26
w: lei- * son,|Ky- ri- e e-|lei- son, e-|lei- * *|son, e-|lei-|son.|
[M:2/2][Q:1/4=140]"^Moderato" A4 A4"^Graduale" | A3 B A4 | A4 G2 c2 | c3 B B4 | B2 B2 A2 G G | %31
w: Tre- mens|fac- tus sum|e- go et|ti- me- o|dum dis- cus- si- o|
 G3 F F4 | E6 E2 | F4 E2 z2 | A4 A4 | ^G3 A A2 =G2 | (F4 G2) ^G2 | A4 A2 E2 | F3 F ^F4 | %39
w: ve- ne- rit|at- que|i- ra,|tre- mens|fac- tus sum et|ti- * me-|o dum dis-|cus- si- o|
 G3 A B2 G2 | (F4 E4) | D4 A4 | B8 | A8 |][M:3/4][Q:1/4=100]"^Andantino" F2 F2 (AG)"^Graduale" | %45
w: ve- ne- rit et|i- *|ra, et|i-|ra.|Fac e- as _|
 F3/2 E/ E2 z2 | B2 (BG) (cB) | B3/2 A/ A2 F2 | B2 A2 G2 | c2 A2 F2 | (F4 G2) | E2 z2 C2 | %52
w: Do- mi- ne,|fac e- * as _|Do- mi- ne de|mor- te tran-|i- re ad|vi- *|tam, quam|
 (B3 A) (BG) | E3/2 G/ F2 A2 | (c3 =B) (cA) | ^F3/2 A/ G2 B2 | (B2 A2) G2 | c3/2 B/ A2 B G | %58
w: o- * lim _|Ab- ra- hae, quam|o- * lim *|Ab- ra- hae, quam|o- * lim|Ab- ra- hae pro- mi-|
 (G2 F2 G2) | A4 A2 | (A2 G2 A2 | B3 A) G F | (F2 G2 E2) | F2 z2 z2 | z6 |][M:2/2] A4 A4 | %66
w: si- * *|sti et|se- * *|* * mi- ni|e- * *|jus.||Sanc- tus|
 A3 A A4 | G2 B2 B2 A2 | G2 C2 E2 G2 | c4 =B2 _B2 | A2 A2 B2 A G | (F4 E4) | F2 A2 A2 A2 | %73
w: Do- mi- nus|De- us Sa- ba-|oth. Ple- ni sunt|coe- li et|ter- ra glo- ri- a|Tu- *|a. Ho- san- na|
 G2 A2 (B2 G2) | A2 (c2 B2) A2 | G8 | F8 |][M:2/4][Q:1/4=50]"^Andantino" x3 C/ C/"^Benedictus" | %78
w: in ex- cel- *|sis, in * ex-|cel-|sis.|Be- ne-|
 F2 E F | (G>^F) G ^G | (Ac- c/B/) A/ G/ | F3/2 G/ E D/ D/ | G2 A A | (B>A) G G | %84
w: dic- tus, qui|ve- * nit in|no- * * * mi- ne|Do- mi- ni, be- ne-|dic- tus, qui|ve- * nit in|
 (G/F/) E/ F/ G3/2 E/ | F z A A | (B>A) G G | (A>B) c A | G2 G G | (G>^F) G C/ C/ | F2 E F | %91
w: no- * mi- ne Do- mi-|ni, be- ne-|dic- * tus, qui|ve- * nit, qui|ve- nit, qui|ve- * nit, be- ne-|dic- tus, qui|
 (G>^F) G B | A/c/ B/ G/ F E | F z z G | B2 A A | (B2 G2) | F z z2 | z4 |] %98
w: ve- * nit in|no- * mi- ne Do- mi-|ni, qui|ve- nit, qui|ve- *|nit.||
[M:3/4][Q:1/4=90]"^Adagio" (C2 F2) A2"^Agnus Dei" | (AG) F2 z F | (BA) G F E F | A2 G2 z2 | %102
w: Ag- * nus|De- * i, qui|tol- * lis pec- ca- ta|mun- di:|
 (G2 A2) G2 | (G2 c2) E2 | D4 G2 | C2 z2 z2 | z2 F2 G2 | (A2 F2) D2 | (B3 G) E D | ^C2 A,2 E2 | %110
w: do- * na|e- * is|re- qui-|em.|Lux ae-|ter- * na|lu- * ce- at|e- is cum|
 (F2 G2) A2 | B4 A2 | G3/2 A/ G2 F2 | E2 z2 z2 | A3/2 G/ G2 A2 | B2 A2 A2- | A3/2 G/ G2 G2 | %117
w: sanc- * tis|Tu- is,|qui- a pi- us|es.|Re- qui- em ae-|ter- num do-|* na e- is|
 G3/2 ^F/ G2 ^G2 | A4 G2 | F3 G A2 | B A/ G/ (F2 E2) | F2 z2 z2 |] %122
w: Do- mi- ne et|lux per-|pe- tu- a|lu- ce- at e- *|is.|
V:2
 [CFA]>[CEG] [CEG]2 [CFA]2 | [CGB]2 [CFA]2 [DFA]2- | [DFA]>[DFG] [DFG]2 [=B,FG]2 | %3
 [EG]>[^D^F] [CEG]2 [=D^G]2 | A4 G2 | [DF]3 [EG] [FA]2 | BA/G/ F2 E2 | FAdcAF | [EG]2 [EG]2 [Ec]2 | %9
 c=BBcdB | G2 GAGF | [CE]>[DF] [EG]2 [CG]2 | A2 A=BcG | [EG]2 [DF]2 [CE]2 | %14
 [CFA][DF] [CE]2 [=B,D]2 | CEG_BAG | [CF]>[CF] [DF]2 [EG]2 | A>^G AcGA | F2 F2 G2 | A>^G ABA=G | %20
 ^F>F G2 A2 | B2 B2 A2 | G2 F2 E2 | [CF]4 [CFA]2 | [FB]6 | [CFA]6 |][M:2/2] [DFA]4 [DFA]4 | %27
 A3 B A4 | A4 G2 c2 | c3 B [DGB]4 | [GB]2 [GB]2 [FA]2 [EG][EG] | [EG]3 [DF] [DF]4 | [DE]6 [DF]2 | %33
 [A,DF]4 [A,^CE]2 z2 | [^CEA]4 [CEA]4 | [DF^G]3 [^CEA] [CEA]2 [E=G]2 | F4 G2 ^G2 | %37
 [^CA]4 [CA]2 [CE]2 | [DF]3 [DF] [D^F]4 | G3 A B2 G2 | F4 E4 | D4 [FA]4 | B8 | [D^FA]8 |] %44
[M:3/4] F2 F2 AG | [CF]>[CE] [CE]2 z2 | B2 BGcB | [DGB]>[FA] [FA]2 F2 | [B,FB]2 [CFA]2 [CEG]2 | %49
 c2 A2 F2 | F4 G2 | [CE]2 z2 C2 | B3 ABG | E>G F2 A2 | c3 =BcA | ^F>A G2 B2 | [GB]2 [FA]2 [CEG]2 | %57
 [CFc]>[CEB] [CFA]2 BG | G2 F2 G2 | A4 [DFA]2 | [_E^FA]2 [DG]2 [DA]2 | [DB]3 [CA][B,G][A,F] | %62
 [A,F]2 [B,G]2 [G,E]2 | [A,CF]2 [A,CF]2 [A,CF]2 | [A,CF]6 |][M:2/2] [CFA]4 [^CGA]4 | A3 A A4 | %67
 G2 [GB]2 [GB]2 [FA]2 | [CEG]2 C2 E2 G2 | c4 =B2 _B2 | A2 A2 B2 AG | F4 E4 | %72
 [CF]2 [FA]2 [FA]2 [FA]2 | [EG]2 [FA]2 [GB]2 [EG]2 | [FA]2 [Fc]2 [EB]2 [CFA]2 | G8 | F8 |] %77
[M:2/4] x3 C/C/ | F2 EF | [EG]>[^D^F] [EG][E^G] | Ac- c/B/A/G/ | F>G ED/D/ | G2 AA | %83
 [DB]>[CA] [B,G][DG] | G/F/E/F/ G>E | [CF] z [FA][FA] | [GB]>[FA] [EG][EG] | [FA]>[GB] [Ac][CFA] | %88
 [FG]2 [FG][FG] | [EG]>[^D^F] [EG]C/C/ | F2 EF | [EG]>[^D^F] [EG][EB] | A/c/B/G/ FE | Fd/c/ c[EG] | %94
 [EGB]2 [FA][FA] | [DGB]2 [B,EG]2 | [A,F] z [A,CF][A,CF] | [A,CF]4 |][M:3/4] C2 F2 [FA]2 | %99
 AG [A,F]2 z F | BA[DG][CF][B,E][A,F] | [CFA]2 [CEG]2 z2 | G2 A2 G2 | G2 c2 E2 | D4 [=B,G]2 | %105
 C2 [=B,D]2 [_B,E]2 | [A,F]2 F2 G2 | A2 F2 D2 | B3 G ED | ^C2 A,2 [A,CE]2 | [A,DF]2 [CEG]2 [CFA]2 | %111
 [CEB]4 [CFA]2 | G>A G2 F2 | EcdBG^G | [CFA]>[CEG] [CEG]2 [CFA]2 | [CGB]2 [CFA]2 [DFA]2- | %116
 [DFA]>[DFG] [DFG]2 [=B,FG]2 | [EG]>[^D^F] [CEG]2 [=D^G]2 | A4 G2 | [DF]3 [EG] [FA]2 | %120
 BA/G/ F2 E2 | F2 z2 z2 |] %122
V:3
 F,>C, C,2 F,2 | E,2 F,2 D,2 | =B,,2 B,,2 G,,2 | C,2 C,2 _B,,2 | A,,2 =B,,2 ^C,2 | D,2 D,2 D,2 | %6
 [B,,B,]2 [C,A,]2 [C,G,]2 | [F,A,]2 z2 z2 | [C,C]2 [C,C]2 [C,G,]2 | [D,G,]2 [D,G,]2 z2 | %10
 =B,,2 G,,2 B,,2 | C,2 C,2 E,2 | F,E,D,G, C,2 | =B,,4 C,2 | F,[F,A,] G,2 [G,,F,]2 | E,2 E,G,F,B, | %16
 A,2 A,2 C2 | [F,C]2 [F,C]2 z2 | A,2 B,2 D,2 | E,2 A,=G,F,E, | A,2 G,2 ^F,2 | G,2 G,2 F,2 | %22
 [B,,B,]2 [C,A,]2 [C,G,]2 | [F,A,]4 F,2- | F,2 F,,2 F,2 | F,,6 |][M:2/2] z2 D,2 F,2 D,2 | %27
 ^C,4 C,4 | =C,4 B,,2 A,,2 | G,,4 G,4 | ^C,4 C,4 | D,4 D,2 B,,2 | G,,4 ^G,,4 | A,,2 D,F, A,2 z2 | %34
 A,4 A,4 | A,4 A,,2 ^C,2 | D,4 B,,4 | A,,4 [A,,E,]2 [A,,A,]2 | [D,A,]4 [C,A,]4 | %39
 [B,,G,]3 [A,,G,] [G,,G,]2 [B,,G,]2 | A,6 G,2 | F,4 D,4 | G,8 | D,8 |] %44
[M:3/4] [F,A,]2 [D,A,]2 [B,,B,]2 | [C,A,]>[C,G,] [C,G,]2 z2 | [C,G,]2 [C,G,]2 [C,G,]2 | %47
 F,2 F,,2 z2 | D,2 C,2 B,,2 | A,,4 z2 | _A,2 G,4 | G,2 z2 z2 | [C,G,]4 z2 | [C,B,]2 [F,A,]2 z2 | %54
 [D,A,]4 z2 | [D,C]2 [G,B,]2 z2 | E,2 F,2 B,2 | A,>G, F,2 G,B, | A,4 E,2 | F,2 E,2 D,2 | %60
 C,2 B,,2 ^F,2 | G,^F,G,A,,B,,=B,, | C,6 | F,,2 C,2 A,,2 | F,,6 |][M:2/2] F,4 E,4 | D,4 C4 | %67
 B,2 G,F, E,2 F,2 | C,2 C,2 E,2 G,2 | C2 C,2 D,2 E,2 | F,2 ^F,2 G,2 [B,,B,]2 | A,2 _A,2 G,2 B,2 | %72
 A,2 F,2 D,2 =B,,2 | C,4 C,4 | F,2 A,2 G,2 F,2 | B,4 G,2 B,2 | A,8 |][M:2/4] x3 z | A,2 B,A, | %79
 [C,C]2 [C,C][C,C] | CA, [B,,B,]2 | A,>B, G, z | B,2 ^F,2 | G,3 [B,,B,] | A,G,/A,/ B,>G, | %85
 A, z z2 | C,2 CB, | A,>G, F,F, | D,C,=B,,D, | C,2 C, z | [F,A,]2 [G,B,][F,A,] | %91
 [C,C]2 [C,C][C,C] | C/A,/G,/B,/ A,G, | A,2 z C, | C,^C, =D,D, | B,,2 C,2 | F, z F,,F,, | F,,4 |] %98
[M:3/4] z2 A,2 F,2 | C,2 F,2 z2 | D,C,B,,A,,G,,F,, | C,2 C,,2 z2 | =B,,4 B,,2 | C,4 A,2 | %104
 A,2 G,2 G,F, | E,2 F,2 G,2 | [F,,F,]2 F,2 G,2 | A,2 F,2 D,2 | B,3 G, E,D, | ^C,2 A,,2 A,,2 | %110
 D,2 =C,2 A,,2 | G,,2 C,2 F,,2 | B,,2 [B,,B,]2 [=B,,G,]2 | [C,G,]2 z2 z2 | F,>C, C,2 F,2 | %115
 E,2 F,2 D,2 | =B,,2 B,,2 G,,2 | C,2 C,2 _B,,2 | A,,2 =B,,2 ^C,2 | D,2 D,2 D,2 | %120
 [B,,B,]2 [C,A,]2 [C,G,]2 | [F,A,]2 z2 z2 |] %122
V:4
 x6 | x6 | x6 | C2 x4 | ^C2 D2 E2 | x6 | D2 C4 | C2 x4 | x6 | F2 F2 x2 | D2 =B,2 D2 | x6 | %12
 F2 F2 E2 | x6 | x6 | C2 C4 | x6 | F2 F2 x2 | D2 D4 | ^C2 C4 | D2 D2 D2 | D2 E2 F2 | D2 C4 | x6 | %24
 D4 _D2 | x6 |][M:2/2] x8 | [EG]4 [EG]4 | [_E^F]4 D2 [DF]2 | [D^F]3 [DG] x4 | x8 | x8 | B,4 =B,4 | %33
 x8 | x8 | x8 | D8 | x8 | x8 | D4 D4 | D6 ^C2 | D4 D4 | [DG]4 [^CE]4 | x8 |][M:3/4] C2 D2 D2 | x6 | %46
 E2 E4 | x6 | x6 | [CF]4 x2 | D6 | x6 | E4 x2 | C2 C2 x2 | ^F4 x2 | D2 D2 x2 | C4 x2 | x4 D2 | C6 | %59
 [CF]2 [^CG]2 x2 | x6 | x6 | x6 | x6 | x6 |][M:2/2] x8 | [DF]4 [D^F]4 | D2 D2 C4 | x8 | %69
 z2 E2 F2 G2 | F2 _E2 D4 | C8 | x8 | x8 | x8 | [DF]4 [CE]4 | C8 |][M:2/4] x4 | C4 | x4 | F_E D2 | %81
 C2 C2 | D4 | x4 | C2 C2 | x4 | x4 | x4 | =B,CDB, | C2 C2 | C4 | x4 | FD C2 | x4 | x4 | x4 | x4 | %97
 x4 |][M:3/4] C2 C2 C2 | [B,E]2 x4 | F2 x4 | x6 | [DF]6 | [CE]4 C2 | C4 x2 | x6 | x6 | x6 | x6 | %109
 x6 | x6 | x6 | D6 | C2 x4 | x6 | x6 | x6 | C2 x4 | ^C2 D2 E2 | x6 | D2 C4 | C2 x4 |] %122
V:5
 x6 | x6 | x6 | x6 | x6 | x6 | x6 | x6 | x6 | x6 | x6 | x6 | x6 | x6 | x6 | C,2 C,4 | F,2 D,2 C,2 | %17
 x6 | D,2 B,,4 | A,,2 A,,4 | D,>C, B,,2 A,,2 | G,,2 C,2 D,2 | x6 | x6 | x6 | x6 |][M:2/2] x8 | x8 | %28
 x8 | x8 | x8 | x8 | x8 | x8 | x8 | x8 | x8 | x8 | x8 | x8 | A,,8 | D,4 D,4 | x8 | x8 |] %44
[M:3/4] x6 | x6 | x6 | x6 | x6 | x6 | =B,,6 | C,2 x4 | x6 | x6 | x6 | x6 | x6 | x4 B,,2 | C,6 | %59
 x6 | x6 | x6 | x6 | x6 | x6 |][M:2/2] x8 | x8 | x8 | x8 | x8 | x8 | C,8 | F,2 x6 | x8 | x8 | %75
 C,4 C,4 | F,8 |][M:2/4] x4 | F,2 G,F, | x4 | F,2 x2 | C,2 C, x | x4 | x4 | C,2 C,2 | F, x3 | x4 | %87
 x4 | x4 | x4 | x4 | x4 | F,B,, C,2 | F,2 x2 | x4 | x4 | x4 | x4 |][M:3/4] x6 | x6 | x6 | x6 | x6 | %103
 x6 | F,2 G,2 G,,2 | C,2 C,4 | x6 | x6 | x6 | x6 | x6 | x6 | x6 | x6 | x6 | x6 | x6 | x6 | x6 | %119
 x6 | x6 | x6 |] %122

